X:1304
T:E Gracenotes
O:Kevin Fraser
Z:Kevin Fraser
B: http://svenax.net/site/canntaireachd/2/
Q:1/4=120
K:HP
M:4/4
L:1/1
R:March
V:gstem=up stem=down
%%MIDI gracedivider 4
%%MIDI gchord
%%MIDI beatstring
T:Nether Lorn Canntaireachd
|| {e}G |{e}A |{e}B |{e}c | {e}d |{e}d |{e}c |{e}B | {e}A |{e}G ||
w:  em   en   eo   eo  |  ea   ea   eo   eo  |  en    em ||
w:  em   en  yo yaw | yah yah yaw yo | en em ||
W:
W: To differentiate between Low A and Low G versus an E gracenote to those notes,
W: in Piobaireachd we would see himen as a movement
V:2 clef=treble
z|x|x|x|x|x
V:3
%%stafflines 8
%%staffscale 2.
[|{[EGBac'e'g']} [EGBdac'e'g'] |
{[EGBac'e'g']}  [GBdac'e'g'] |
{[GBac'e'g']}  [Bdac'e'g'] |
{[Bac'e'g']}  [Edac'e'g'] |
{[Eac'e'g']}  [Edac'e'g'] |
{[Eac'e'g']}  [Bdac'e'g'] |
{[Bac'e'g']}  [GBdac'e'g'] |
{[GBac'e'g']} [EGBdac'e'g'] |]
T:
|| {g}A{e}A ||
w: himen en
T: DITHIS single
B: Logan's Complete Tutor
||{g}G>{e}A {g}B>{e}A | {g}d>{e}A {g}B>{e}A||
w: Him-en    ho-un     | ha-un       ho-un ||
T: DITHIS double
B: Logan's Complete Tutor
||{g}G>{e}A {g}B>{e}B | {g}d>{e}d {g}B>{e}B ||
w: Him-un  Hio-eio       |  ha-ea      hio-eio
T: Alternate Canntaireachd 
|| {e}G |{e}A |{e}B |{e}c | {e}d |{e}d |{e}c |{e}B | {e}A |{e}G ||
w:  um   un   eio   eo  |  ea   ea   eo   eio  |  un    um ||

